actions/scalable/zoom-in.svg

<svg height="22" width="22" xmlns="http://www.w3.org/2000/svg" xmlns:sodipodi="http://sodipodi.sourceforge.net/DTD/sodipodi-0.dtd" xmlns:inkscape="http://www.inkscape.org/namespaces/inkscape">
 <path d="m3 3v1 7h1v-7h5v-1h-5-1zm9 0l2 2-4 7 7-4 2 2v-7h-7zm-9 10v6h6v-6h-6zm15 0v5h-7v1h8v-1-5h-1zm-14 1h4v4h-4v-4z" fill="#4d4d4d" transform="matrix(1 0 0 1 0 0)"/>
</svg>

<?xml version="1.0" encoding="UTF-8" standalone="no"?>
<!-- Created with Inkscape (http://www.inkscape.org/) -->

<svg
   xmlns:dc="http://purl.org/dc/elements/1.1/"
   xmlns:cc="http://creativecommons.org/ns#"
   xmlns:rdf="http://www.w3.org/1999/02/22-rdf-syntax-ns#"
   xmlns:svg="http://www.w3.org/2000/svg"
   xmlns="http://www.w3.org/2000/svg"
   xmlns:sodipodi="http://sodipodi.sourceforge.net/DTD/sodipodi-0.dtd"
   xmlns:inkscape="http://www.inkscape.org/namespaces/inkscape"
   width="22"
   height="22"
   id="svg4355"
   version="1.1"
   inkscape:version="0.48+devel r"
   sodipodi:docname="zoom-in.svg">
  <defs
     id="defs4357" />
  <sodipodi:namedview
     id="base"
     pagecolor="#ffffff"
     bordercolor="#666666"
     borderopacity="1.0"
     inkscape:pageopacity="0.0"
     inkscape:pageshadow="2"
     inkscape:zoom="16.301626"
     inkscape:cx="5.306493"
     inkscape:cy="13.808373"
     inkscape:document-units="px"
     inkscape:current-layer="layer1"
     showgrid="true"
     width="0px"
     height="0px"
     fit-margin-top="0"
     fit-margin-left="0"
     fit-margin-right="0"
     fit-margin-bottom="0"
     inkscape:window-width="1366"
     inkscape:window-height="718"
     inkscape:window-x="-2"
     inkscape:window-y="23"
     inkscape:window-maximized="1"
     inkscape:showpageshadow="false">
    <inkscape:grid
       type="xygrid"
       id="grid4112" />
    <sodipodi:guide
       position="2.0000011,19.999996"
       orientation="18,0"
       id="guide4118" />
    <sodipodi:guide
       position="2.0000011,1.9999962"
       orientation="0,18"
       id="guide4120" />
    <sodipodi:guide
       position="20.000001,1.9999962"
       orientation="-18,0"
       id="guide4122" />
    <sodipodi:guide
       position="20.000001,19.999996"
       orientation="0,-18"
       id="guide4124" />
    <sodipodi:guide
       position="3.0000011,18.999996"
       orientation="16,0"
       id="guide4126" />
    <sodipodi:guide
       position="3.0000011,2.9999962"
       orientation="0,16"
       id="guide4128" />
    <sodipodi:guide
       position="19.000001,2.9999962"
       orientation="-16,0"
       id="guide4130" />
    <sodipodi:guide
       position="19.000001,18.999996"
       orientation="0,-16"
       id="guide4132" />
  </sodipodi:namedview>
  <metadata
     id="metadata4360">
    <rdf:RDF>
      <cc:Work
         rdf:about="">
        <dc:format>image/svg+xml</dc:format>
        <dc:type
           rdf:resource="http://purl.org/dc/dcmitype/StillImage" />
        <dc:title></dc:title>
      </cc:Work>
    </rdf:RDF>
  </metadata>
  <g
     inkscape:label="Capa 1"
     inkscape:groupmode="layer"
     id="layer1"
     transform="translate(-544.57141,-742.93359)">
    <path
       style="opacity:1;fill:#666666;fill-opacity:1;stroke:none"
       d="M 3 3 L 3 4 L 3 11 L 4 11 L 4 4 L 9 4 L 9 3 L 4 3 L 3 3 z M 12 3 L 14 5 L 10 12 L 17 8 L 19 10 L 19 3 L 12 3 z M 3 13 L 3 19 L 9 19 L 9 13 L 3 13 z M 18 13 L 18 18 L 11 18 L 11 19 L 19 19 L 19 18 L 19 13 L 18 13 z M 4 14 L 8 14 L 8 18 L 4 18 L 4 14 z "
       transform="translate(544.57141,742.93359)"
       id="rect4134" />
  </g>
</svg>
